assets/magento/original.svg

<svg viewBox="0 0 128 128" xmlns="http://www.w3.org/2000/svg"><path d="m119.82 31.97v64.01l-15.85 9.12v-63.93l-39.62-22.9-39.64 22.9.1 63.96-15.82-9.15v-63.96l55.46-32.02zm-47.52 73.13-7.9 4.6-7.95-4.55v-63.98l-15.82 9.15.03 63.96 23.72 13.72 23.77-13.72v-63.99l-15.85-9.15z" fill="#f26322"/></svg>

<svg xmlns="http://www.w3.org/2000/svg" viewBox="0 0 128 128"><path fill="#f26322" d="M119.82 31.97v64.01l-15.85 9.12V41.17l-39.62-22.9-39.64 22.9.1 63.96-15.82-9.15V32.02L64.45 0zM72.3 105.1l-7.9 4.6-7.95-4.55V41.17l-15.82 9.15.03 63.96L64.38 128l23.77-13.72V50.29L72.3 41.14z"/></svg>
